X:1
T:It Is Good to Be Here
T:It Is Good to Be Here
T:John Robson Sweney
T:Isaac N. Wilson, 1878
T:Public Domain Courtesy of the Cyber Hymnal™
T:Public Domain Courtesy of the Cyber Hymnal™
C:John Robson Sweney
Z:Public Domain
Z:Courtesy of the Cyber Hymnal™
%%score ( 1 2 ) ( 3 4 )
L:1/8
Q:1/4=100
M:4/4
K:A
V:1 treble 
V:2 treble 
V:3 bass 
V:4 bass 
V:1
 [CE][CE] | [CA]2 [CA][CA] [CA]2 ([CA][Ec]) | (cB)[EB][EB] [EB]2 [Ec][Ed] | %3
w: 1.~While we|bow in Thy name, O *|meet * us a- gain, Fill our|
w: 2.~Ou- r|souls long for Thee; O *|may * we now see A ~|
w: 3.~Thou art|with us, we know; we *|feel * the sweet flow Of the|
 [Ae]2 [Fd][FB] [EA]2 [EB][EG] | [EA]6 [CE][CE] | [CA]2 [CA][CA] [CA]2 ([CA][Ec]) | %6
w: hearts with the light of Thy|love. May the|Spir- it of grace, and~the *|
w: sin- cleans- ing blood wave ap-|pear; A- nd|feel as it rolls in *|
w: sin- cleans- ing wave’s gladd- ’ning|tide; We are|washed from our sin, made~all *|
 (cB)[EB][EB] [EB]2 [Ec][Ed] | [Ae]2 [Fd][FB] [EA]2 [EB][EG] | [EA]6 ||"^Refrain" [Ec][Ed] | %10
w: smiles * of Thy face, Gent- ly|fall on us now from a-|bove.||
w: power * o’er our souls, It is|good for us, Lord, to be|here.|It is|
w: ho- * ly with- in, And in|Je- sus we sweet- ly a-|bide.||
 [Ee]2 [Ed][Ec] [EB]2 [EB][Ec] | [Ed]2 [Ec][DB] [CA]3 [CE] | [CE][Ec][Ec][Ec] [Ee]2 (dc) | %13
w: |||
w: good to be here, it is|good to be here; Thy|per- fect love now drives a- *|
w: |||
 [EB]2 [EB][EB] [EB]3 [DE] | [CA]2 [CA][CA] [CA]2 [CA][Ec] | (cB)[EB][EB] [EB]2 [Ec][Ed] | %16
w: |||
w: way all our fear, And|light stream- ing down makes the|path- * way all clear: It is|
w: |||
 [Ae]2 [Fd][FB] [EA]2 [EB][EG] | [EA]6 |] %18
w: ||
w: good for us, Lord, to be|here.|
w: ||
V:2
 x2 | x8 | E2 x6 | x8 | x8 | x8 | E2 x6 | x8 | x6 || x2 | x8 | x8 | x6 E2 | x8 | x8 | E2 x6 | x8 | %17
 x6 |] %18
V:3
 [A,,A,][A,,A,] | [A,,E,]2 [A,,E,][A,,E,] [A,,E,]2 ([A,,E,][A,,A,]) | %2
 (A,G,)[E,G,][E,G,] [E,G,]2 A,[A,B,] | [A,C]2 [D,B,][D,D] [E,C]2 [E,D][E,D] | %4
 [A,,C]6 [A,,A,][A,,A,] | [A,,E,]2 [A,,E,][A,,E,] [A,,E,]2 ([A,,E,][A,,A,]) | %6
 (A,G,)[E,G,][E,G,] [E,G,]2 A,[A,B,] | [A,C]2 [D,B,][D,D] [E,C]2 [E,D][E,D] | [A,,C]6 || A,[A,B,] | %10
 [A,C]2 [G,B,]A, [E,G,]2 [E,G,][E,A,] | [E,B,]2 [E,A,][E,G,] [A,,A,]3 [A,,A,] | %12
 [A,,A,][C,A,][E,A,]A, [A,C]2 ([G,B,] A,) | [E,G,]2 [E,G,][E,G,] [E,G,]3 [E,G,] | %14
 [A,,E,]2 [A,,E,][A,,E,] [A,,E,]2 [A,,E,][A,,A,] | (A,G,)[E,G,][E,G,] [E,G,]2 A,[A,B,] | %16
 [A,C]2 [D,B,][D,D] [E,C]2 [E,D][E,D] | [A,,C]6 |] %18
V:4
 x2 | x8 | E,2 x3 A, x2 | x8 | x8 | x8 | E,2 x3 A, x2 | x8 | x6 || A, x | x3 A, x4 | x8 | %12
 x3 A, x2 A, x | x8 | x8 | E,2 x3 A, x2 | x8 | x6 |] %18

